assets/icons/24px/stroke/full-screen-24px.svg

<svg width="24" height="24" viewBox="0 0 24 24" fill="none" xmlns="http://www.w3.org/2000/svg">
<path fill-rule="evenodd" clip-rule="evenodd" d="M6.93417 2C6.95604 2 6.97799 2 7 2H8.625C9.17729 2 9.625 2.44772 9.625 3C9.625 3.55229 9.17729 4 8.625 4H7C6.02893 4 5.40122 4.00213 4.93871 4.06431C4.50497 4.12263 4.36902 4.21677 4.2929 4.2929C4.21677 4.36902 4.12263 4.50497 4.06431 4.93871C4.00213 5.40121 4 6.02893 4 7V8.625C4 9.17729 3.55229 9.625 3 9.625C2.44772 9.625 2 9.17729 2 8.625V7C2 6.97799 2 6.95604 2 6.93417C1.99995 6.04769 1.99991 5.28387 2.08215 4.67221C2.17028 4.0167 2.36902 3.38835 2.87868 2.87868C3.38835 2.36902 4.0167 2.17028 4.67221 2.08215C5.28387 1.99991 6.04769 1.99995 6.93417 2ZM19.0613 4.06431C18.5988 4.00213 17.9711 4 17 4H15.375C14.8227 4 14.375 3.55229 14.375 3C14.375 2.44772 14.8227 2 15.375 2L17.0658 2C17.9523 1.99995 18.7161 1.99991 19.3278 2.08215C19.9833 2.17028 20.6117 2.36902 21.1213 2.87868C21.631 3.38835 21.8297 4.0167 21.9179 4.67221C22.0001 5.28388 22.0001 6.0477 22 6.9342L22 8.625C22 9.17729 21.5523 9.625 21 9.625C20.4477 9.625 20 9.17729 20 8.625V7C20 6.02893 19.9979 5.40122 19.9357 4.93871C19.8774 4.50497 19.7832 4.36902 19.7071 4.2929C19.631 4.21677 19.495 4.12263 19.0613 4.06431ZM3 14.375C3.55229 14.375 4 14.8227 4 15.375V17C4 17.9711 4.00213 18.5988 4.06431 19.0613C4.12263 19.495 4.21677 19.631 4.2929 19.7071C4.36902 19.7832 4.50497 19.8774 4.93871 19.9357C5.40121 19.9979 6.02893 20 7 20H8.625C9.17729 20 9.625 20.4477 9.625 21C9.625 21.5523 9.17729 22 8.625 22L6.9342 22C6.0477 22.0001 5.28388 22.0001 4.67221 21.9179C4.0167 21.8297 3.38835 21.631 2.87868 21.1213C2.36902 20.6117 2.17028 19.9833 2.08215 19.3278C1.99991 18.7161 1.99995 17.9523 2 17.0658L2 15.375C2 14.8227 2.44772 14.375 3 14.375ZM21 14.375C21.5523 14.375 22 14.8227 22 15.375L22 17.0658C22.0001 17.9523 22.0001 18.7161 21.9179 19.3278C21.8297 19.9833 21.631 20.6117 21.1213 21.1213C20.6117 21.631 19.9833 21.8297 19.3278 21.9179C18.7161 22.0001 17.9523 22.0001 17.0658 22L15.375 22C14.8227 22 14.375 21.5523 14.375 21C14.375 20.4477 14.8227 20 15.375 20H17C17.9711 20 18.5988 19.9979 19.0613 19.9357C19.495 19.8774 19.631 19.7832 19.7071 19.7071C19.7832 19.631 19.8774 19.495 19.9357 19.0613C19.9979 18.5988 20 17.9711 20 17V15.375C20 14.8227 20.4477 14.375 21 14.375Z" fill="white"/>
</svg>

<svg width="24" height="24" fill="none" xmlns="http://www.w3.org/2000/svg"><path fill-rule="evenodd" clip-rule="evenodd" d="M6.934 2h1.691a1 1 0 1 1 0 2H7c-.971 0-1.599.002-2.061.064-.434.059-.57.153-.646.229-.076.076-.17.212-.229.646C4.002 5.4 4 6.029 4 7v1.625a1 1 0 1 1-2 0V7v-.066c0-.886 0-1.65.082-2.262.088-.655.287-1.284.797-1.793.51-.51 1.138-.709 1.793-.797C5.284 2 6.048 2 6.934 2zm12.127 2.064C18.6 4.002 17.971 4 17 4h-1.625a1 1 0 1 1 0-2h1.69c.887 0 1.651 0 2.263.082.655.088 1.284.287 1.793.797.51.51.709 1.138.797 1.793C22 5.284 22 6.048 22 6.934v1.691a1 1 0 1 1-2 0V7c0-.971-.002-1.599-.064-2.061-.059-.434-.153-.57-.229-.646-.076-.076-.212-.17-.646-.229zM3 14.375a1 1 0 0 1 1 1V17c0 .971.002 1.599.064 2.061.059.434.153.57.229.646.076.076.212.17.646.229C5.4 19.998 6.029 20 7 20h1.625a1 1 0 1 1 0 2h-1.69c-.887 0-1.651 0-2.263-.082-.655-.088-1.284-.287-1.793-.797-.51-.51-.709-1.138-.797-1.793C2 18.716 2 17.952 2 17.066v-1.691a1 1 0 0 1 1-1zm18 0a1 1 0 0 1 1 1v1.69c0 .887 0 1.651-.082 2.263-.088.655-.287 1.284-.797 1.793-.51.51-1.138.709-1.793.797-.612.082-1.376.082-2.262.082h-1.691a1 1 0 1 1 0-2H17c.971 0 1.599-.002 2.061-.064.434-.059.57-.153.646-.229.076-.076.17-.212.229-.646.062-.462.064-1.09.064-2.061v-1.625a1 1 0 0 1 1-1z" fill="#fff"/></svg>
